src/icons/sanity.svg

<svg width="69" height="69" viewBox="0 0 69 69" fill="none" xmlns="http://www.w3.org/2000/svg">
<g clip-path="url(#clip0_67_335)">
<mask id="mask0_67_335" style="mask-type:luminance" maskUnits="userSpaceOnUse" x="0" y="0" width="69" height="69">
<path d="M69 34.5C69 15.4462 53.5538 0 34.5 0C15.4462 0 0 15.4462 0 34.5C0 53.5538 15.4462 69 34.5 69C53.5538 69 69 53.5538 69 34.5Z" fill="white"/>
</mask>
<g mask="url(#mask0_67_335)">
<path d="M69 0H0V69H69V0Z" fill="#F03E2F"/>
<path d="M21.2514 17.877C21.2514 23.8058 24.9781 27.3335 32.439 29.1937L40.345 30.9946C47.4061 32.588 51.7061 36.5456 51.7061 42.9932C51.761 45.8022 50.8315 48.5443 49.0733 50.76C49.0733 44.3272 45.6861 40.8514 37.5161 38.7615L29.7534 37.0273C23.5373 35.634 18.7393 32.3805 18.7393 25.377C18.7066 22.6725 19.5904 20.034 21.2514 17.877Z" fill="white"/>
<path d="M44.2151 41.4145C47.5872 43.5341 49.0658 46.4985 49.0658 50.7525C46.2745 54.2652 41.371 56.2365 35.6075 56.2365C25.9061 56.2365 19.1166 51.5455 17.6078 43.3933H26.9245C28.124 47.1359 31.2999 48.8701 35.5396 48.8701C40.7147 48.8701 44.1547 46.1576 44.2226 41.3997" fill="#F9B1AB"/>
<path d="M26.0946 26.6664C24.5548 25.7673 23.2915 24.4755 22.4388 22.928C21.5861 21.3804 21.1758 19.6349 21.2515 17.8768C23.9446 14.3936 28.6294 12.2666 34.3401 12.2666C44.2226 12.2666 49.9409 17.3951 51.3515 24.6135H42.3894C41.4012 21.7676 38.9268 19.5517 34.4155 19.5517C29.595 19.5517 26.3059 22.3086 26.1173 26.6664" fill="#F9B1AB"/>
</g>
</g>
<defs>
<clipPath id="clip0_67_335">
<rect width="69" height="69" fill="white"/>
</clipPath>
</defs>
</svg>

<svg xmlns="http://www.w3.org/2000/svg" width="69" height="69" fill="none"><g clip-path="url(#a)"><mask id="b" width="69" height="69" x="0" y="0" maskUnits="userSpaceOnUse" style="mask-type:luminance"><path fill="#fff" d="M69 34.5C69 15.446 53.554 0 34.5 0 15.446 0 0 15.446 0 34.5 0 53.554 15.446 69 34.5 69 53.554 69 69 53.554 69 34.5"/></mask><g mask="url(#b)"><path fill="#F03E2F" d="M69 0H0v69h69z"/><path fill="#fff" d="M21.251 17.877c0 5.929 3.727 9.457 11.188 11.317l7.906 1.8c7.061 1.594 11.361 5.552 11.361 12a12.11 12.11 0 0 1-2.633 7.766c0-6.433-3.387-9.909-11.557-11.998l-7.763-1.735c-6.216-1.393-11.014-4.647-11.014-11.65a12.05 12.05 0 0 1 2.512-7.5"/><path fill="#F9B1AB" d="M44.215 41.415c3.372 2.12 4.85 5.084 4.85 9.337-2.79 3.513-7.694 5.484-13.457 5.484-9.702 0-16.491-4.69-18-12.843h9.316c1.2 3.743 4.376 5.477 8.616 5.477 5.175 0 8.615-2.712 8.683-7.47M26.095 26.666a9.825 9.825 0 0 1-3.656-3.738 9.606 9.606 0 0 1-1.187-5.051c2.693-3.483 7.377-5.61 13.088-5.61 9.883 0 15.6 5.128 17.011 12.346H42.39c-.988-2.845-3.462-5.061-7.974-5.061-4.82 0-8.11 2.757-8.298 7.114"/></g></g><defs><clipPath id="a"><path fill="#fff" d="M0 0h69v69H0z"/></clipPath></defs></svg>
